<?xml version="1.0" encoding="UTF-8"?>
<map version="1.10" tiledversion="1.12.2" orientation="orthogonal" renderorder="right-down" width="32" height="25" tilewidth="64" tileheight="64" infinite="0" nextlayerid="9" nextobjectid="1">
 <editorsettings>
  <export target="../level1.csv" format="csv"/>
 </editorsettings>
 <tileset firstgid="1" source="mazetest2-lvl1.tsx"/>
 <layer id="8" name="back" width="32" height="25">
  <data encoding="csv">
0,0,1,1,1,6,6,6,6,6,6,6,6,6,1,1,1,1,0,0,0,0,0,0,0,0,1,0,0,0,0,0,
0,1,6,6,6,6,6,6,6,6,6,6,6,6,6,6,6,6,1,1,0,0,0,0,0,0,0,2,2,2,2,2,
0,1,6,6,6,6,6,6,6,6,6,6,6,6,6,6,6,6,6,6,1,0,0,0,0,0,0,11,11,11,11,11,
1,6,6,6,6,6,6,6,6,6,6,6,6,6,6,6,6,6,6,6,6,1,0,0,0,0,0,0,11,11,11,0,
1,6,6,6,2,2,2,6,6,6,6,6,6,2,2,2,2,6,6,6,6,1,0,0,0,0,0,0,0,11,0,0,
1,6,6,6,6,6,6,2,6,6,6,6,6,6,6,6,6,6,6,6,6,1,0,0,0,0,0,0,0,11,0,0,
1,6,6,6,6,6,6,6,6,2,2,2,6,6,6,6,6,6,6,6,6,1,0,0,0,0,0,0,0,11,0,0,
0,1,6,2,6,2,6,6,6,6,6,6,6,6,2,2,6,2,6,6,6,6,1,0,0,0,0,0,0,11,0,0,
0,1,6,6,6,6,6,6,6,6,6,6,6,6,6,6,6,6,6,6,6,6,1,0,0,0,0,0,0,11,0,0,
0,1,6,6,2,2,2,2,6,2,6,6,6,6,6,6,6,6,2,6,6,6,1,0,0,0,0,0,1,11,1,0,
0,1,6,6,6,6,6,6,2,6,6,6,6,2,2,2,6,1,1,1,1,1,1,0,0,0,0,1,6,11,6,1,
1,6,6,6,6,6,6,6,6,6,6,6,6,6,6,6,6,1,1,1,1,1,1,0,0,0,1,6,6,11,6,6,
1,6,6,6,6,6,6,6,6,6,6,6,6,6,6,6,6,1,1,1,1,1,1,0,0,0,1,6,6,11,6,6,
1,6,6,6,2,2,2,2,2,2,2,2,2,6,2,6,6,1,1,6,6,6,1,0,0,0,1,6,6,6,6,6,
1,6,6,6,6,6,6,6,6,6,6,6,6,6,6,6,2,2,2,6,6,6,1,0,0,0,0,1,6,6,6,1,
1,6,6,6,6,6,6,6,6,6,6,6,6,6,6,6,11,11,1,6,6,1,0,0,0,0,0,0,1,3,1,0,
1,6,6,6,6,6,6,6,6,2,2,2,6,6,2,2,6,6,1,6,6,1,0,0,0,0,0,0,1,3,1,0,
1,6,6,6,6,2,2,2,2,6,6,6,2,2,6,6,6,6,1,6,6,1,0,0,0,0,0,0,1,7,1,1,
1,6,6,6,6,6,6,6,6,6,6,6,6,6,6,6,6,6,1,6,1,0,0,0,0,0,0,0,1,0,0,1,
1,6,6,6,6,6,6,6,6,6,6,6,6,6,6,6,6,6,1,6,1,0,0,0,0,0,0,0,1,1,0,0,
1,6,6,6,6,6,6,6,6,6,6,2,2,2,2,2,2,2,2,6,1,1,1,1,1,1,1,1,1,1,1,0,
0,1,6,6,6,6,6,6,6,6,6,6,6,6,6,6,6,6,6,6,1,1,0,0,0,0,0,0,0,0,1,0,
0,0,1,6,6,6,6,6,6,6,6,6,6,6,6,6,6,6,1,1,0,0,0,1,0,1,1,1,1,1,1,0,
0,0,0,1,1,6,6,6,6,6,6,6,6,6,1,1,1,0,1,1,1,1,0,1,0,0,0,0,1,1,0,0,
0,0,0,0,0,1,1,1,6,6,6,1,1,1,0,0,1,0,0,0,0,0,0,1,0,1,1,0,0,0,0,1
</data>
 </layer>
 <layer id="3" name="back2" width="32" height="25">
  <data encoding="csv">
0,0,0,0,0,0,0,0,0,0,0,0,0,0,0,0,0,0,0,0,0,0,0,0,0,0,0,0,0,0,0,0,
0,0,0,0,0,0,0,0,0,0,0,0,0,0,0,0,0,0,0,0,0,0,0,0,0,0,0,0,0,8,0,0,
0,0,0,0,0,0,0,0,0,0,0,0,0,0,0,0,0,0,0,0,0,0,0,0,0,0,0,0,0,8,0,0,
0,0,0,0,0,0,0,0,0,0,0,0,0,0,0,0,0,0,0,0,0,0,0,0,0,0,0,0,0,8,0,0,
0,0,0,0,0,0,0,0,0,0,0,0,0,0,0,0,0,0,0,0,0,0,0,0,0,0,0,0,0,8,0,0,
0,0,0,0,0,0,0,0,0,0,0,0,0,0,0,9,0,0,0,0,0,0,0,0,0,0,0,0,0,8,0,0,
0,0,0,0,0,0,0,0,0,0,0,0,0,0,0,0,0,0,0,0,0,0,0,0,0,0,0,0,0,8,0,0,
0,0,0,0,0,0,0,0,0,0,0,0,0,0,0,0,0,0,0,0,0,0,0,0,0,0,0,0,0,8,0,0,
0,0,0,0,0,0,0,0,0,0,0,0,0,0,0,0,0,0,0,0,0,0,0,0,0,0,0,0,0,8,0,0,
0,0,0,0,0,0,8,0,0,0,0,0,0,0,0,0,0,0,0,0,0,0,0,0,0,0,0,0,0,8,0,0,
0,0,0,0,0,0,0,0,0,0,0,0,0,0,8,0,0,0,0,0,0,0,0,0,0,0,0,0,0,8,0,0,
0,0,0,0,0,0,0,0,0,0,0,0,0,0,0,0,0,0,0,0,0,0,0,0,0,0,0,0,0,8,0,0,
0,0,0,0,0,0,0,0,0,0,0,0,0,0,0,0,0,0,0,0,0,0,0,0,0,0,0,0,0,8,0,0,
0,0,0,0,0,0,0,0,0,0,0,0,0,0,0,0,0,0,0,0,0,0,0,0,0,0,0,0,0,0,0,0,
0,0,0,0,0,0,0,0,0,0,0,0,0,0,0,0,0,0,0,0,0,0,0,0,0,0,0,0,0,0,0,0,
0,0,0,0,0,0,0,0,0,0,0,0,0,0,0,0,0,0,0,0,0,0,0,0,0,0,0,0,0,0,0,0,
0,0,0,0,0,0,0,0,0,0,0,0,0,0,0,0,0,4,0,0,0,0,0,0,0,0,0,0,0,0,0,0,
0,0,0,0,0,0,8,0,0,0,0,0,12,0,0,0,0,0,0,0,0,0,0,0,0,0,0,0,0,0,0,0,
0,0,0,0,0,0,0,0,0,0,0,0,12,0,0,0,0,0,0,0,0,0,0,0,0,0,0,0,0,0,0,0,
0,0,0,0,0,0,0,0,0,0,0,0,0,0,0,0,0,0,0,0,0,0,0,0,0,0,0,0,0,0,0,0,
0,0,0,0,0,0,0,0,0,0,0,0,0,0,0,0,0,0,0,0,0,0,0,0,0,0,0,0,0,0,0,0,
0,0,0,0,0,0,0,0,0,0,0,0,0,0,0,0,0,0,0,0,0,0,0,0,0,0,0,0,0,0,0,0,
0,0,0,0,0,0,0,0,0,0,0,0,0,0,0,0,0,0,0,0,0,0,0,0,0,0,0,0,0,0,0,0,
0,0,0,0,0,0,0,0,0,0,0,0,0,0,0,0,0,12,0,0,0,0,0,0,0,0,0,0,0,0,0,0,
0,0,0,0,0,0,0,0,0,0,0,0,0,0,0,0,0,0,0,0,0,0,0,0,0,0,0,0,0,0,0,0
</data>
 </layer>
 <layer id="2" name="front" width="32" height="25">
  <data encoding="csv">
0,0,0,0,0,0,0,0,0,0,0,0,0,0,0,0,0,0,0,0,0,0,0,0,0,0,0,5,5,5,5,5,
0,0,0,0,0,0,0,0,0,0,0,0,0,0,0,0,0,0,0,0,0,0,0,0,0,0,0,0,0,0,0,0,
0,0,0,0,0,0,0,0,0,0,0,0,0,0,0,0,0,0,0,0,0,0,0,0,0,0,0,0,0,0,0,0,
0,0,0,5,5,5,5,5,0,0,0,0,5,5,5,5,5,5,0,0,0,0,0,0,0,0,0,0,0,0,0,0,
0,0,0,5,0,0,0,5,0,0,0,0,5,0,0,0,0,5,0,0,0,0,0,0,0,0,0,0,13,0,13,0,
0,0,0,5,0,0,0,0,0,5,5,5,5,0,0,0,0,5,0,0,0,0,0,0,0,0,0,0,13,0,13,0,
0,0,0,5,5,5,0,0,0,0,0,0,5,3,5,5,3,5,5,0,0,0,0,0,0,0,0,0,13,0,13,0,
0,0,0,0,5,0,0,0,0,0,0,0,5,7,0,0,7,0,5,0,0,0,0,0,0,0,0,0,13,0,13,0,
0,0,0,0,5,5,5,5,5,5,3,3,5,0,0,0,0,0,5,0,0,0,0,0,0,0,0,0,13,0,13,0,
0,0,0,0,3,0,0,0,5,3,3,3,5,5,5,5,0,0,3,0,0,0,0,0,0,0,0,0,13,0,13,0,
0,0,0,0,3,0,0,0,0,7,7,7,5,0,0,0,0,0,3,0,0,0,0,0,0,0,0,0,13,0,13,0,
0,0,0,0,3,0,0,0,0,0,0,0,5,0,0,0,0,0,3,0,0,0,0,0,0,0,0,0,13,0,13,0,
0,0,0,0,5,5,5,5,5,5,5,5,5,3,5,5,0,0,3,0,0,0,0,0,0,0,0,0,13,0,13,0,
0,0,0,0,0,0,0,0,0,0,0,0,0,7,0,5,5,5,5,0,0,0,0,0,0,0,0,0,0,0,0,0,
0,0,0,0,0,0,0,0,0,0,0,0,0,0,0,5,0,0,0,0,0,0,0,0,0,0,0,0,0,0,0,0,
0,0,0,0,0,5,5,5,5,5,5,5,5,5,5,5,0,0,5,0,0,0,0,0,0,0,0,0,0,0,0,0,
0,0,0,0,0,5,5,5,5,0,0,0,5,5,0,0,0,0,5,0,0,0,0,0,0,0,0,0,0,0,0,0,
0,0,0,0,0,0,0,0,0,0,0,0,0,0,0,0,0,0,5,0,0,0,0,0,0,0,0,0,0,0,0,0,
0,0,0,0,0,0,0,0,0,0,0,0,0,0,0,0,0,0,5,0,0,0,0,0,0,0,0,0,0,0,0,0,
0,0,0,0,0,0,0,0,0,0,0,5,5,5,5,5,5,5,5,0,0,0,0,0,0,0,0,0,0,0,0,0,
0,0,0,0,0,0,0,0,0,0,0,0,0,0,0,0,0,0,0,0,0,0,0,0,0,0,0,0,0,0,0,0,
0,0,0,0,0,0,0,0,0,0,0,0,0,0,0,0,0,0,0,0,0,0,0,0,0,0,0,0,0,0,0,0,
0,0,0,0,0,0,0,0,0,0,0,0,0,0,0,0,0,0,0,0,0,0,0,0,0,0,0,0,0,0,0,0,
0,0,0,0,0,0,0,0,0,0,0,0,0,0,0,0,0,11,0,0,0,0,0,0,0,0,0,0,0,0,0,0,
0,0,0,0,0,0,0,0,0,0,0,0,0,0,0,0,0,0,0,0,0,0,0,0,0,0,0,0,0,0,0,0
</data>
 </layer>
 <layer id="6" name="front2" width="32" height="25">
  <data encoding="csv">
0,0,0,0,0,0,0,0,0,0,0,0,0,0,0,0,0,0,0,0,0,0,0,0,0,0,0,0,0,0,0,0,
0,0,0,0,0,0,0,0,0,0,0,0,0,0,0,0,0,0,0,0,0,0,0,0,0,0,0,0,0,0,0,0,
0,0,0,0,0,0,0,0,0,0,0,0,0,0,0,0,0,0,0,0,0,0,0,0,0,0,0,0,0,0,0,0,
0,0,0,0,0,0,0,0,0,0,0,0,0,0,0,0,0,0,0,0,0,0,0,0,0,0,0,0,0,0,0,0,
0,0,0,0,0,0,0,0,0,0,0,0,0,0,0,0,0,0,0,0,0,0,0,0,0,0,0,0,0,0,0,0,
0,0,0,0,0,0,0,0,0,0,0,0,0,0,0,0,0,0,0,0,0,0,0,0,0,0,0,0,0,0,0,0,
0,0,0,0,0,0,0,0,0,0,0,0,0,0,0,0,0,0,0,0,0,0,0,0,0,0,0,0,0,0,0,0,
0,0,0,0,0,0,0,0,0,0,0,0,0,0,0,0,0,0,0,0,0,0,0,0,0,0,0,0,0,0,0,0,
0,0,0,0,0,0,0,0,0,0,0,0,0,0,0,0,0,0,0,0,0,0,0,0,0,0,0,0,0,0,0,0,
0,0,0,0,0,0,0,0,0,0,0,0,0,0,0,0,0,0,0,0,0,0,0,0,0,0,0,0,0,0,0,0,
0,0,0,0,0,0,0,0,0,0,0,0,0,0,0,0,0,0,0,0,0,0,0,0,0,0,0,0,0,0,0,0,
0,0,0,0,0,0,0,0,0,0,0,0,0,0,0,0,0,0,0,0,0,0,0,0,0,0,0,0,0,0,0,0,
0,0,0,0,0,0,0,0,0,0,0,0,0,0,0,0,0,0,0,0,0,0,0,0,0,0,0,0,0,0,0,0,
0,0,0,0,0,0,0,0,0,0,0,0,0,0,0,0,0,0,0,0,0,0,0,0,0,0,0,0,0,0,0,0,
0,0,0,0,0,0,0,0,0,0,0,0,0,0,0,0,0,0,0,0,0,0,0,0,0,0,0,0,0,0,0,0,
0,0,0,0,0,0,0,0,0,0,0,0,0,0,0,0,0,0,0,0,0,0,0,0,0,0,0,0,0,0,0,0,
0,0,0,0,0,0,0,0,0,0,0,0,0,0,0,0,0,0,0,0,0,0,0,0,0,0,0,0,0,0,0,0,
0,0,0,0,0,0,0,0,0,0,0,0,0,0,0,0,0,0,0,0,0,0,0,0,0,0,0,0,0,0,0,0,
0,0,0,0,0,0,0,0,0,0,0,0,0,0,0,0,0,0,0,0,0,0,0,0,0,0,0,0,0,0,0,0,
0,0,0,0,0,0,0,0,0,0,0,0,0,0,0,0,0,0,0,0,0,0,0,0,0,0,0,0,0,0,0,0,
0,0,0,0,0,0,0,0,0,0,0,0,0,0,0,0,0,0,0,0,0,0,0,0,0,0,0,0,0,0,0,0,
0,0,0,0,0,0,0,0,0,0,0,0,0,0,0,0,0,0,0,0,0,0,0,0,0,0,0,0,0,0,0,0,
0,0,0,0,0,0,0,0,0,0,0,0,0,0,0,0,0,0,0,0,0,0,0,0,0,0,0,0,0,0,0,0,
0,0,0,0,0,0,0,0,0,0,0,0,0,0,0,0,0,0,0,0,0,0,0,0,0,0,0,0,0,0,0,0,
0,0,0,0,0,0,0,0,0,0,0,0,0,0,0,0,0,0,0,0,0,0,0,0,0,0,0,0,0,0,0,0
</data>
 </layer>
</map>
