<?xml version="1.0" encoding="UTF-8"?>
<map version="1.10" tiledversion="1.11.0" orientation="orthogonal" renderorder="right-down" width="18" height="20" tilewidth="64" tileheight="64" infinite="0" nextlayerid="8" nextobjectid="1">
 <editorsettings>
  <export target="level1.csv" format="csv"/>
 </editorsettings>
 <tileset firstgid="1" source="spritesheet.tsx"/>
 <tileset firstgid="17" source="../level2/spritesheet.tsx"/>
 <layer id="1" name="back" width="18" height="20">
  <data encoding="csv">
6,6,6,6,6,6,6,6,6,6,6,6,6,6,6,6,6,6,
6,0,0,0,0,0,0,0,0,0,0,0,0,0,0,0,0,6,
6,0,2,2,2,0,2,2,2,2,0,2,2,2,2,0,0,6,
6,0,6,6,6,0,6,0,0,0,0,6,6,6,6,0,0,6,
6,0,0,0,6,2,6,2,2,2,0,6,0,0,6,0,0,6,
6,0,0,2,6,6,6,6,6,6,0,6,2,2,6,2,0,6,
6,0,0,0,0,0,0,0,6,6,0,6,6,6,6,6,0,6,
6,0,2,2,0,2,0,2,6,6,0,0,0,0,6,6,0,6,
6,0,6,6,6,6,2,6,6,6,0,2,0,2,6,6,0,6,
6,0,6,6,6,6,6,6,6,6,0,6,6,6,6,6,0,6,
6,0,0,0,0,0,0,0,0,0,0,6,0,0,0,6,0,6,
6,0,2,2,2,2,2,2,2,2,2,6,2,2,0,6,0,6,
6,0,6,0,0,0,0,0,0,6,6,6,6,6,0,0,0,6,
6,0,6,0,0,0,0,2,0,0,0,0,0,0,0,2,0,6,
6,0,6,2,0,2,2,6,2,2,0,0,0,0,0,6,0,6,
6,0,6,6,6,6,6,6,6,6,2,2,2,2,2,6,0,6,
6,0,6,6,6,6,6,6,6,6,6,6,6,6,6,6,0,6,
6,0,0,0,0,0,0,0,0,0,0,0,0,0,0,0,0,6,
6,2,2,2,2,2,2,2,2,2,2,2,2,2,2,2,2,6,
6,6,6,6,6,6,6,6,6,6,6,6,6,6,6,6,6,6
</data>
 </layer>
 <layer id="3" name="back2" width="18" height="20">
  <data encoding="csv">
0,0,0,0,0,0,0,0,0,0,0,0,0,0,0,0,0,0,
0,0,0,0,0,0,0,0,0,0,0,0,0,0,0,0,0,0,
0,0,0,0,0,0,0,0,0,0,0,0,0,0,0,0,0,0,
0,0,0,0,0,0,0,0,0,0,0,0,0,9,0,0,0,0,
0,0,0,0,0,0,0,0,0,0,0,0,0,0,0,0,0,0,
0,0,0,0,0,0,0,0,0,0,0,0,0,0,0,0,0,0,
0,0,0,0,0,0,0,0,0,0,0,0,0,0,0,0,0,0,
0,0,0,0,8,0,0,0,0,0,0,0,0,0,0,0,0,0,
0,0,0,0,0,0,0,0,0,0,0,0,8,0,0,0,0,0,
0,0,0,0,0,0,0,0,0,0,0,0,0,0,0,0,0,0,
0,0,0,0,0,0,0,0,0,0,0,0,0,0,0,0,0,0,
0,0,0,0,0,0,0,0,0,0,0,0,0,0,0,0,0,0,
0,0,0,0,0,0,0,0,0,0,0,0,0,0,0,0,0,0,
0,0,0,0,0,0,0,0,0,0,0,0,0,0,0,0,0,0,
0,0,0,0,8,0,0,0,0,0,0,0,0,0,0,4,0,0,
0,0,0,0,0,0,0,0,0,0,12,0,0,0,0,0,0,0,
0,0,0,0,0,0,0,0,0,0,12,0,0,0,0,0,0,0,
0,0,0,0,0,0,0,0,0,0,0,0,0,0,0,0,0,0,
0,0,0,0,0,0,0,0,0,0,0,0,0,0,0,0,0,0,
0,0,0,0,0,0,0,0,0,0,0,0,0,0,0,0,0,0
</data>
 </layer>
 <layer id="2" name="front" width="18" height="20" visible="0">
  <data encoding="csv">
0,0,0,0,0,0,0,0,0,0,0,0,0,0,0,0,0,0,
0,5,5,5,5,5,5,5,5,5,5,5,5,5,5,5,5,0,
0,5,0,0,0,5,0,0,0,0,5,0,0,0,0,5,5,0,
0,5,0,0,0,5,0,5,5,5,5,0,0,0,0,5,5,0,
0,5,5,5,0,0,0,0,0,0,5,3,5,5,3,5,5,0,
0,5,5,0,0,0,0,0,0,0,5,7,0,0,7,0,5,0,
0,5,5,5,5,5,5,5,3,3,5,0,0,0,0,0,5,0,
0,5,0,0,0,0,5,0,7,7,5,5,5,5,0,0,5,0,
0,5,0,0,0,0,0,0,0,0,5,0,0,0,0,0,5,0,
0,5,0,0,0,0,0,0,0,0,5,0,0,0,0,0,5,0,
0,5,5,5,5,5,5,5,5,5,5,3,5,5,5,0,5,0,
0,5,0,0,0,0,0,0,0,0,0,7,0,0,5,0,5,0,
0,5,0,5,5,5,5,5,5,0,0,0,0,0,5,5,5,0,
0,5,0,5,5,5,5,0,5,5,5,5,5,5,5,0,5,0,
0,5,0,0,0,0,0,0,0,0,5,5,5,5,5,0,5,0,
0,5,0,0,0,0,0,0,0,0,0,0,0,0,0,0,5,0,
0,5,0,0,0,0,0,0,0,0,0,0,0,0,0,0,5,0,
0,5,5,5,5,5,5,5,5,5,5,5,5,5,5,5,5,0,
0,0,0,0,0,0,0,0,0,0,0,0,0,0,0,0,0,0,
0,0,0,0,0,0,0,0,0,0,0,0,0,0,0,0,0,0
</data>
 </layer>
 <layer id="4" name="front2" width="18" height="20" visible="0">
  <data encoding="csv">
11,11,11,11,11,11,11,11,11,11,11,11,11,11,11,11,11,11,
11,0,0,0,0,0,0,0,0,0,0,0,0,0,0,0,0,11,
11,0,11,11,11,0,11,11,11,11,0,11,11,11,11,0,0,11,
11,0,11,11,11,0,11,0,0,0,0,11,11,11,11,0,0,11,
11,0,0,0,11,11,11,11,11,11,0,0,0,0,0,0,0,11,
11,0,0,11,11,11,11,11,11,11,0,11,11,11,11,11,0,11,
11,0,0,0,0,0,0,0,0,0,0,11,11,11,11,11,0,11,
11,0,11,11,27,11,0,11,11,11,0,0,0,0,11,11,0,11,
11,0,11,11,27,11,11,11,11,11,0,11,11,11,11,11,0,11,
11,0,11,11,11,11,11,11,11,11,0,11,11,11,11,11,0,11,
11,0,0,0,0,0,0,0,0,0,0,0,0,0,0,11,0,11,
11,0,11,11,11,11,11,11,11,11,11,11,11,11,0,11,0,11,
11,0,11,0,0,0,0,0,0,11,11,11,11,11,0,0,0,11,
11,0,11,0,0,0,0,11,0,0,0,0,0,0,0,11,0,11,
11,0,11,11,27,11,11,11,11,11,0,0,0,0,0,11,0,11,
11,0,11,11,27,11,11,11,11,11,11,11,11,11,11,11,0,11,
11,0,11,11,11,11,11,11,11,11,11,11,11,11,11,11,0,11,
11,0,0,0,0,0,0,0,0,0,0,0,0,0,0,0,0,11,
11,11,11,11,11,11,11,11,11,11,11,11,11,11,11,11,11,11,
0,0,0,0,0,0,0,0,0,0,0,0,0,0,0,0,0,0
</data>
 </layer>
 <layer id="6" name="front3" width="18" height="20">
  <data encoding="csv">
0,0,0,0,0,0,0,0,0,0,0,0,0,0,0,0,0,0,
0,0,0,0,0,0,0,0,0,0,0,0,0,0,0,0,0,0,
0,0,0,0,0,0,0,0,0,0,0,0,0,0,0,0,0,0,
0,0,0,0,0,0,0,0,0,0,0,0,0,0,0,0,0,0,
0,0,0,0,0,0,0,0,0,0,0,0,0,0,0,0,0,0,
0,0,0,0,0,0,0,0,0,0,0,0,0,0,0,0,0,0,
0,0,0,0,0,0,0,0,0,0,0,0,0,0,0,0,0,0,
0,0,0,0,0,0,0,0,0,0,0,0,0,0,0,0,0,0,
0,0,0,0,0,0,0,0,0,0,0,0,0,0,0,0,0,0,
0,0,0,0,0,0,0,0,0,0,0,0,0,0,0,0,0,0,
0,0,0,0,0,0,0,0,0,0,0,0,0,0,0,0,0,0,
0,0,0,0,0,0,0,0,0,0,0,0,0,0,0,0,0,0,
0,0,0,0,0,0,0,0,0,0,0,0,0,0,0,0,0,0,
0,0,0,0,0,0,0,0,0,0,0,0,0,0,0,0,0,0,
0,0,0,0,0,0,0,0,0,0,0,0,0,0,0,0,0,0,
0,0,0,0,0,0,0,0,0,0,0,0,0,0,0,0,0,0,
0,0,0,0,0,0,0,0,0,0,0,0,0,0,0,0,0,0,
0,0,0,0,0,0,0,0,0,0,0,0,0,0,0,0,0,0,
0,0,0,0,0,0,0,0,0,0,0,0,0,0,0,0,0,0,
0,0,0,0,0,0,0,0,0,0,0,0,0,0,0,0,0,0
</data>
 </layer>
</map>
