<?xml version="1.0" encoding="UTF-8"?>
<map version="1.10" tiledversion="1.12.2" orientation="orthogonal" renderorder="right-down" width="20" height="20" tilewidth="64" tileheight="64" infinite="0" nextlayerid="9" nextobjectid="1">
 <editorsettings>
  <export target="../level1.csv" format="csv"/>
 </editorsettings>
 <tileset firstgid="1" source="mazetest2-lvl0.tsx"/>
 <layer id="8" name="back" width="20" height="20">
  <data encoding="csv">
0,0,0,0,0,0,0,0,0,0,0,0,0,0,0,0,0,0,0,0,
0,0,0,0,0,0,0,0,0,3,3,0,0,3,3,3,3,0,0,0,
0,0,0,0,0,0,0,0,2,0,3,3,3,3,7,7,7,0,2,0,
0,0,0,0,0,0,0,0,11,0,7,7,7,7,0,0,0,0,11,0,
0,0,0,0,0,0,0,0,11,0,0,0,0,0,0,0,0,0,11,0,
0,0,0,0,0,0,0,0,11,0,0,0,0,0,0,0,0,0,11,0,
0,0,0,0,0,0,0,0,11,0,0,0,0,0,0,0,0,0,11,0,
0,0,0,0,0,0,0,0,11,0,0,0,0,0,0,0,0,0,11,0,
0,0,0,0,0,0,0,0,11,0,0,0,0,0,0,0,0,0,11,0,
0,0,0,0,0,0,0,0,11,0,0,0,0,0,0,0,0,0,11,0,
0,0,0,0,0,0,0,0,11,0,0,0,0,0,0,0,0,0,11,0,
0,0,0,0,0,0,0,0,11,0,0,0,0,0,0,0,0,0,11,0,
0,0,0,0,0,0,0,0,11,0,0,0,0,0,0,0,0,0,11,0,
0,0,0,0,0,0,0,0,11,0,0,0,0,0,0,0,0,0,11,0,
0,0,0,0,0,0,0,0,11,0,0,0,0,0,0,0,0,0,11,0,
0,0,0,0,0,0,0,0,11,0,0,0,0,0,0,0,0,0,11,0,
0,0,0,0,0,0,0,0,11,0,0,0,0,0,0,0,0,0,11,0,
0,0,0,0,0,0,0,0,11,0,0,0,0,0,0,0,0,0,11,0,
1,5,1,0,0,0,0,0,11,0,0,0,0,0,0,0,0,0,11,0,
0,2,0,0,0,0,0,0,11,0,0,0,0,0,0,0,0,0,11,0
</data>
 </layer>
 <layer id="3" name="back2" width="20" height="20">
  <data encoding="csv">
0,0,0,0,0,0,0,0,0,0,0,0,0,0,0,0,0,0,0,0,
0,8,8,0,0,8,0,0,0,0,0,0,0,0,0,0,0,0,0,0,
0,0,8,8,8,8,0,0,8,0,0,0,0,0,0,0,0,0,8,0,
0,0,8,0,0,8,8,0,8,0,0,0,0,0,0,8,8,0,8,0,
0,0,8,8,0,8,0,0,8,8,8,8,8,8,0,0,8,0,8,0,
0,0,0,8,0,8,8,8,0,0,0,0,0,8,0,0,8,0,8,8,
0,8,8,8,0,0,0,0,8,8,8,8,0,8,0,0,8,0,0,8,
0,8,0,0,0,8,0,0,8,0,0,0,0,8,0,8,8,8,0,8,
0,8,0,0,0,8,0,8,8,8,8,0,0,8,0,0,0,8,0,8,
0,8,8,8,0,8,0,0,0,8,8,0,0,0,0,0,0,8,0,8,
0,0,0,8,0,8,0,0,0,0,8,0,8,8,0,8,0,8,0,8,
0,8,8,8,8,8,8,8,8,8,8,0,0,8,0,8,0,8,0,8,
0,8,0,8,0,0,8,0,0,8,0,0,0,8,0,8,0,8,0,8,
0,0,0,8,0,0,8,0,0,8,0,0,8,8,8,8,0,8,0,8,
0,8,8,8,0,8,8,0,0,8,8,0,8,0,0,0,0,8,0,8,
0,8,0,0,0,8,0,0,8,0,8,0,8,0,8,8,8,8,0,8,
0,8,0,8,8,8,0,0,8,0,8,8,8,0,8,0,0,0,0,8,
0,8,0,0,0,8,8,8,8,0,0,0,8,8,8,0,8,8,8,8,
0,0,0,0,8,8,0,0,0,0,0,0,0,0,0,0,8,0,0,0,
0,0,0,0,0,8,0,0,8,8,8,8,8,8,8,8,8,0,0,0
</data>
 </layer>
 <layer id="2" name="front" width="20" height="20">
  <data encoding="csv">
0,0,0,0,0,0,0,0,0,0,0,0,0,0,0,0,0,0,0,0,
0,0,0,0,0,0,0,0,5,0,0,0,0,0,0,0,0,0,5,0,
0,0,0,0,0,0,0,0,0,0,0,0,0,0,0,0,0,0,0,0,
0,0,0,0,0,0,0,0,0,0,0,0,0,0,0,0,0,0,0,0,
0,0,0,0,0,0,0,0,0,0,0,0,0,0,0,0,0,0,0,0,
0,0,0,0,0,0,0,0,0,0,0,0,0,0,0,0,0,0,0,0,
0,0,0,0,0,0,0,0,0,0,0,0,0,0,0,0,0,0,0,0,
0,0,0,0,0,0,0,0,0,0,0,0,0,0,0,0,0,0,0,0,
0,0,0,0,0,0,0,0,0,0,0,0,0,0,0,0,0,0,0,0,
0,0,0,0,0,0,0,0,0,0,0,0,0,0,0,0,0,0,0,0,
0,0,0,0,0,0,0,0,0,0,0,0,0,0,0,0,0,0,0,0,
0,0,0,0,0,0,0,0,0,0,0,0,0,0,0,0,0,0,0,0,
0,0,0,0,0,0,0,0,0,0,0,0,0,0,0,0,0,0,0,0,
0,0,0,0,0,0,0,0,0,0,0,0,0,0,0,0,0,0,0,0,
0,0,0,0,0,0,0,0,0,0,0,0,0,0,0,0,0,0,0,0,
0,0,0,0,0,0,0,0,0,0,0,0,0,0,0,0,0,0,0,0,
0,0,0,0,0,0,0,0,0,0,0,0,0,0,0,0,0,0,0,0,
0,0,0,0,0,0,0,0,0,0,0,0,0,0,0,0,0,0,0,0,
0,0,0,0,0,0,0,0,0,0,0,0,0,0,0,0,0,0,0,0,
0,0,0,0,0,0,0,0,0,0,0,0,0,0,0,0,0,0,0,0
</data>
 </layer>
 <layer id="6" name="front2" width="20" height="20">
  <data encoding="csv">
0,0,0,0,0,0,0,0,0,0,0,0,0,0,0,0,0,0,0,0,
0,0,0,0,0,0,0,0,0,0,0,0,0,0,0,0,0,0,4,0,
0,0,0,0,0,0,0,0,0,0,0,0,0,0,0,0,0,0,0,0,
0,0,0,0,0,0,0,0,0,0,0,0,0,0,0,0,0,0,0,0,
0,0,0,0,0,0,0,0,0,0,0,0,0,0,0,0,0,0,0,0,
0,0,0,0,0,0,0,0,0,0,0,0,0,0,0,0,0,0,0,0,
0,0,0,0,0,0,0,0,0,0,0,0,0,0,0,0,0,0,0,0,
0,0,0,0,0,0,0,0,0,0,0,0,0,0,0,0,0,0,0,0,
0,0,0,0,0,0,0,0,0,0,0,0,0,0,0,0,0,0,0,0,
0,0,0,0,0,0,0,0,0,0,0,0,0,0,0,0,0,0,0,0,
0,0,0,0,0,0,0,0,0,0,0,0,0,0,0,0,0,0,0,0,
0,0,0,0,0,0,0,0,0,0,0,0,0,0,0,0,0,0,0,0,
0,0,0,0,0,0,0,0,0,0,0,0,0,0,0,0,0,0,0,0,
0,0,0,0,0,0,0,0,0,0,0,0,0,0,0,0,0,0,0,0,
0,0,0,0,0,0,0,0,0,0,0,0,0,0,0,0,0,0,0,0,
0,0,0,0,0,0,0,0,0,0,0,0,0,0,0,0,0,0,0,0,
0,0,0,0,0,0,0,0,0,0,0,0,0,0,0,0,0,0,0,0,
0,0,0,0,0,0,0,0,0,0,0,0,0,0,0,0,0,0,0,0,
0,0,0,0,0,0,0,0,0,0,0,0,0,0,0,0,0,0,0,0,
0,0,0,0,0,0,0,0,0,0,0,0,0,0,0,0,0,0,0,0
</data>
 </layer>
</map>
